X: 95
T: POLKA: P&O (Dmin)
C: C: Christy Leahy; S: ThZCh; Polca an Rí; Brendan Begley
C: Set Leaders: Oliushka, Anton, Sophie
Z: Anton Zille ed.; Bregolas at The Session
N: https://www.soundslice.com/slices/R1QCc/
N: https://thesession.org/members/26966/sets/76527
R: Polka
M: 2/4
L: 1/8
Q: 1/4=140
K: Dmin
|:A,D DE|FG/F/ ED|EC C>D|EC DC|
A,D DE|F2 EG|FA Gc|1 d2 dA:|2 dA de||
|:f2 ec|dc AG|Ec cd|e2 de|
fd ec|dc AG|FA Gc|1 d2 de:|2 d2 dA||

